X: 42860
T: Wild Lime, The
R: reel
M: 4/4
K: Emajor
|:G2FG E3E|FGBG BcBG|EFFE ~F2EF|GEBG E~F3|
G2FG E3E|FGBG BcBG|E~F3 FECE|B,CEF E3F:|
|:EFGB cefe|g3f feBe|Bc2c cB (3GFE|FGBG E~F3|
EFGB cefe|g3f feBe|Bc2c cB (3GFE|FEFG E2EF:|

